X:45
T:President's Hornpipe, The 
C:Joe Buchanan's Scottish Tome - Page 193.2
I:193 2
C:Tom Anderson
R:Hornpipe
Z:Carl Allison
L:1/8
M:4/4
K:D
g | f>dA>F B>GE>C | (DF)Ac d2 AF | (GA)BG A(dcd) | fed<f e2 g2 |
f>dA>F B>GE>C | (DF)Ac d2 AF | GABG Adce | d2 D2 D2 :|
fg | a>ba<f (ga)g<e | (fg)fd A2 ef | g>ag<f (ef)ed | c2 A2 A2 fg |
a>ba<f (ga)g<e | (fg)fd A2 Bc | (dA)BG (AB)AG | F2 D2 D2 fg |
a>ba<f (ga)g<e | fgfd A2 ef | g>ag<f (ef)ed | c2 A2 A2 ag |
f>dA>F B>GE>C | (DF)Ac d2 AF | GABG Adce | d2 D2 D2 |]

